tools/download-figma-icons/icons/outlined-large/e-bike.svg

<svg width="64" height="64" viewBox="0 0 64 64" fill="none" xmlns="http://www.w3.org/2000/svg">
<path fill-rule="evenodd" clip-rule="evenodd" d="M53.9106 60.3844C50.0017 60.3844 46.8217 57.2044 46.8217 53.2954C46.8217 50.5774 48.3617 48.2144 50.6127 47.0254L52.4656 53.6974C52.6496 54.3614 53.2526 54.7954 53.9096 54.7954C54.0426 54.7954 54.1776 54.7784 54.3116 54.7404C55.1106 54.5194 55.5776 53.6924 55.3556 52.8944L53.5036 46.2264C53.6396 46.2184 53.7736 46.2054 53.9106 46.2054C57.8196 46.2054 60.9996 49.3864 60.9996 53.2954C60.9996 57.2044 57.8196 60.3844 53.9106 60.3844ZM10.0899 60.3844C6.18096 60.3844 2.99998 57.2044 2.99998 53.2954C2.99998 49.3864 6.18096 46.2054 10.0899 46.2054C11.0829 46.2054 12.0279 46.4124 12.8869 46.7824C12.0869 47.6944 11.3949 48.5794 10.8179 49.3804C10.5809 49.3374 10.3389 49.3074 10.0899 49.3074C7.88695 49.3074 6.10196 51.0934 6.10196 53.2954C6.10196 55.4974 7.88695 57.2824 10.0899 57.2824C11.7609 57.2824 13.1869 56.2534 13.7809 54.7954H17.0159C16.3259 57.9864 13.4839 60.3844 10.0899 60.3844ZM13.7809 51.7954C13.6659 51.5154 13.5209 51.2524 13.3489 51.0084C13.9049 50.2454 14.5709 49.4004 15.3359 48.5444C16.1559 49.4484 16.7489 50.5604 17.0159 51.7954H13.7809ZM21.2849 51.7954H20.0549C19.7459 49.7354 18.8159 47.8794 17.4559 46.4234C18.0649 45.8835 18.7139 45.3715 19.3969 44.9045L21.2849 51.7954ZM53.9106 43.2055C53.4956 43.2055 53.0896 43.2385 52.6876 43.2875L48.8167 29.3496L52.1397 23.2146C52.3916 22.7496 52.3797 22.1866 52.1097 21.7326C51.8387 21.2786 51.3497 20.9996 50.8207 20.9996H42.8187C41.9897 20.9996 41.3187 21.6716 41.3187 22.4996C41.3187 23.3276 41.9897 23.9996 42.8187 23.9996H48.3027L45.8897 28.4526C45.7047 28.7946 45.6597 29.1956 45.7637 29.5696L47.9837 37.5615L26.5588 43.8745L25.7148 40.8325C25.7118 40.8225 25.7088 40.8125 25.7058 40.8025L22.3879 28.8576H25.8138C26.6428 28.8576 27.3138 28.1856 27.3138 27.3576C27.3138 26.5296 26.6428 25.8576 25.8138 25.8576H17.5579C16.7289 25.8576 16.0579 26.5296 16.0579 27.3576C16.0579 28.1856 16.7289 28.8576 17.5579 28.8576H19.2749L21.1479 35.6005H17.5039C17.1739 35.6005 16.9339 35.9135 17.0209 36.2325L18.5679 41.8795C17.2949 42.6585 16.1289 43.5715 15.0789 44.5375C13.6059 43.6955 11.9049 43.2055 10.0899 43.2055C4.52597 43.2055 0 47.7324 0 53.2954C0 58.8594 4.52597 63.3843 10.0899 63.3843C15.1419 63.3843 19.3269 59.6484 20.0549 54.7954H27.6188C28.0878 54.7954 28.5298 54.5764 28.8138 54.2024C29.0978 53.8294 29.1898 53.3454 29.0648 52.8944L27.9508 48.8844L49.3747 42.5715L49.7977 44.0915C46.2807 45.6694 43.8217 49.1974 43.8217 53.2954C43.8217 58.8594 48.3477 63.3843 53.9106 63.3843C59.4736 63.3843 63.9996 58.8594 63.9996 53.2954C63.9996 47.7324 59.4736 43.2055 53.9106 43.2055Z" fill="black"/>
</svg>

<svg width="64" height="64" viewBox="0 0 64 64" fill="none" xmlns="http://www.w3.org/2000/svg"><path fill-rule="evenodd" clip-rule="evenodd" d="M53.91 60.384a7.097 7.097 0 0 1-7.088-7.089 7.094 7.094 0 0 1 3.79-6.27l1.854 6.672a1.499 1.499 0 1 0 2.89-.803l-1.852-6.668c.136-.008.27-.02.407-.02 3.909 0 7.089 3.18 7.089 7.09a7.097 7.097 0 0 1-7.09 7.088Zm-43.82 0c-3.909 0-7.09-3.18-7.09-7.089 0-3.909 3.181-7.09 7.09-7.09.993 0 1.938.207 2.797.577a34.85 34.85 0 0 0-2.07 2.598 4.065 4.065 0 0 0-.727-.073 3.988 3.988 0 0 0 0 7.975 3.985 3.985 0 0 0 3.69-2.487h3.236c-.69 3.191-3.532 5.59-6.926 5.59Zm3.69-8.589a4.005 4.005 0 0 0-.431-.787 31.963 31.963 0 0 1 1.987-2.464 7.06 7.06 0 0 1 1.68 3.251H13.78Zm7.505 0h-1.23a10.043 10.043 0 0 0-2.6-5.372 19.675 19.675 0 0 1 1.942-1.519l1.888 6.891Zm32.626-8.59c-.415 0-.821.034-1.223.083L48.817 29.35l3.323-6.135A1.5 1.5 0 0 0 50.82 21h-8a1.5 1.5 0 1 0 0 3h5.484l-2.413 4.453c-.185.342-.23.743-.126 1.117l2.22 7.992-21.425 6.313-.844-3.042-.01-.03-3.317-11.945h3.426a1.5 1.5 0 1 0 0-3h-8.256a1.5 1.5 0 1 0 0 3h1.717l1.873 6.742h-3.644a.5.5 0 0 0-.483.633l1.547 5.647a22.64 22.64 0 0 0-3.49 2.657 10.023 10.023 0 0 0-4.988-1.331C4.526 43.206 0 47.731 0 53.296c0 5.563 4.526 10.088 10.09 10.088 5.052 0 9.237-3.736 9.965-8.589h7.564a1.5 1.5 0 0 0 1.446-1.9l-1.114-4.01 21.424-6.313.423 1.52c-3.517 1.577-5.976 5.105-5.976 9.203 0 5.564 4.526 10.09 10.089 10.09 5.563 0 10.089-4.526 10.089-10.09 0-5.563-4.526-10.09-10.09-10.09Z" fill="currentColor"/></svg>
